X:105
T:Tarbolton, The
M:C|
R:Reel
S:Michael Coleman
K:G
|: Eeed e2BA|GBAF GFEF|Ddd^c d2AG|FDAG FDDF|
|Eeed efge|fedf edBA|GABG FGAc|1 BGAF GEED |2 BGAF GEE2:|
|:gfef gebe|gebe gfef|~d2 fd Adfd|BdAG FDD2|
|~G2 BG ~F2AF|~E2 ef gfed|B2(3BcB AGFA| BGAF GEE2:|
